X:159
T:Star Dust
C:Hoagy Carmichael
N:Arranged for mandolin by Mike Stangeland
L:1/8
Q:1/4=87
M:4/4
K:C
"C"zc ec dB cA | "F9"BA G6 | "E7"FE ^DE cB ^GE | "A7"^C8 | "Dm"z2 DF AD FA | "C/E"(3G2E2 G2 "Am"c4 | 
"B7"B2 B,^D AB, =DA | "Em"G2 "Ebdim7"G2 "Dm7"G4 | "C"zc ec dB cA | "F9"BA G6 | 
"E7"FE ^DE cB ^GE | "A7"^C8 | "Dm"z2 DF AD FA | "C/E"(3G2E2 G2 "Ebdim7"c4 | "Dm7"zG AF GE "G7"FD | 
"C6"C4 z"C7#5"B c^c |: "F6"d2 c2 A2 F2 | D2 F2 A2 e2 | "Fm6"e8 | "Fm6/Ab"dc ^GF D3d | 
"C/G"c2 G2 c4 | "Em"Be "Em/D"BG "A7/C#"E4 | "Dm7"zA cA FG "A7/E"EF |1 D4 "Fm6"zF zD | 
"G7/D"G2 "Gdim"G2 "G7"G4 | "G7"zD zF GD ^DG | "C"E4 A4 | "Am7"z6 e2 | "D7"ed cA E2 ^F2 | 
BD ^C=C zA zD | "G7"G2 G2 "Dm7"Ad DA | "G7"G6 "C7#5"c2 :|2 "Dm7/F"D4 "Fm6"zE2D | 
"Dm7/b5"G2 ^F2 =F4 | "Fm6"z6 CD | "C"E2 "G/B"G2 "Am"c2 "C/G"e2 | "B7/F#"B6 c2 | 
"F6"dc AF "A7/E"A4 | "Dm7"zG AF "G7"GE FD | "C6/9"C8 | 


